static/img/kroki/82903b4b3e07d9506069cd945cb7522a.svg

<?xml version="1.0" encoding="us-ascii" standalone="no"?><svg xmlns="http://www.w3.org/2000/svg" xmlns:xlink="http://www.w3.org/1999/xlink" contentStyleType="text/css" height="252px" preserveAspectRatio="none" style="width:868px;height:252px;" version="1.1" viewBox="0 0 868 252" width="868px" zoomAndPan="magnify"><defs/><g><!--class azure_authorization_role_assignment--><g id="elem_azure_authorization_role_assignment"><rect codeLine="23" fill="#3D176E" height="39.7891" id="azure_authorization_role_assignment" rx="2.5" ry="2.5" style="stroke:#000D19;stroke-width:0.5;" width="356" x="312.5" y="7"/><ellipse cx="327.5" cy="26.8945" fill="#ADD1B2" rx="11" ry="11" style="stroke:#181818;stroke-width:1.0;"/><path d="M330.4688,32.5352 Q329.8906,32.832 329.25,32.9727 Q328.6094,33.1289 327.9063,33.1289 Q325.4063,33.1289 324.0781,31.4883 Q322.7656,29.832 322.7656,26.707 Q322.7656,23.582 324.0781,21.9258 Q325.4063,20.2695 327.9063,20.2695 Q328.6094,20.2695 329.25,20.4258 Q329.9063,20.582 330.4688,20.8789 L330.4688,23.5977 Q329.8438,23.0195 329.25,22.7539 Q328.6563,22.4727 328.0313,22.4727 Q326.6875,22.4727 326,23.5508 Q325.3125,24.6133 325.3125,26.707 Q325.3125,28.8008 326,29.8789 Q326.6875,30.9414 328.0313,30.9414 Q328.6563,30.9414 329.25,30.6758 Q329.8438,30.3945 330.4688,29.8164 L330.4688,32.5352 Z " fill="#000000"/><text fill="#D9B8FF" font-family="Helvetica" font-size="17" lengthAdjust="spacing" textLength="314" x="346.5" y="32.7798">azure_authorization_role_assignment</text></g><!--class microsoft_graph_device--><g id="elem_microsoft_graph_device"><rect codeLine="26" fill="#3D176E" height="39.7891" id="microsoft_graph_device" rx="2.5" ry="2.5" style="stroke:#000D19;stroke-width:0.5;" width="239" x="7" y="206.58"/><ellipse cx="22" cy="226.4745" fill="#ADD1B2" rx="11" ry="11" style="stroke:#181818;stroke-width:1.0;"/><path d="M24.9688,232.1152 Q24.3906,232.412 23.75,232.5527 Q23.1094,232.7089 22.4063,232.7089 Q19.9063,232.7089 18.5781,231.0683 Q17.2656,229.412 17.2656,226.287 Q17.2656,223.162 18.5781,221.5058 Q19.9063,219.8495 22.4063,219.8495 Q23.1094,219.8495 23.75,220.0058 Q24.4063,220.162 24.9688,220.4589 L24.9688,223.1777 Q24.3438,222.5995 23.75,222.3339 Q23.1563,222.0527 22.5313,222.0527 Q21.1875,222.0527 20.5,223.1308 Q19.8125,224.1933 19.8125,226.287 Q19.8125,228.3808 20.5,229.4589 Q21.1875,230.5214 22.5313,230.5214 Q23.1563,230.5214 23.75,230.2558 Q24.3438,229.9745 24.9688,229.3964 L24.9688,232.1152 Z " fill="#000000"/><text fill="#D9B8FF" font-family="Helvetica" font-size="17" lengthAdjust="spacing" textLength="197" x="41" y="232.3598">microsoft_graph_device</text></g><!--class microsoft_graph_group--><g id="elem_microsoft_graph_group"><rect codeLine="29" fill="#3D176E" height="39.7891" id="microsoft_graph_group" rx="2.5" ry="2.5" style="stroke:#000D19;stroke-width:0.5;" width="234" x="288.5" y="106.79"/><ellipse cx="303.5" cy="126.6845" fill="#ADD1B2" rx="11" ry="11" style="stroke:#181818;stroke-width:1.0;"/><path d="M306.4688,132.3252 Q305.8906,132.622 305.25,132.7627 Q304.6094,132.9189 303.9063,132.9189 Q301.4063,132.9189 300.0781,131.2783 Q298.7656,129.622 298.7656,126.497 Q298.7656,123.372 300.0781,121.7158 Q301.4063,120.0595 303.9063,120.0595 Q304.6094,120.0595 305.25,120.2158 Q305.9063,120.372 306.4688,120.6689 L306.4688,123.3877 Q305.8438,122.8095 305.25,122.5439 Q304.6563,122.2627 304.0313,122.2627 Q302.6875,122.2627 302,123.3408 Q301.3125,124.4033 301.3125,126.497 Q301.3125,128.5908 302,129.6689 Q302.6875,130.7314 304.0313,130.7314 Q304.6563,130.7314 305.25,130.4658 Q305.8438,130.1845 306.4688,129.6064 L306.4688,132.3252 Z " fill="#000000"/><text fill="#D9B8FF" font-family="Helvetica" font-size="17" lengthAdjust="spacing" textLength="192" x="322.5" y="132.5698">microsoft_graph_group</text></g><!--class microsoft_graph_service_principal--><g id="elem_microsoft_graph_service_principal"><rect codeLine="32" fill="#3D176E" height="39.7891" id="microsoft_graph_service_principal" rx="2.5" ry="2.5" style="stroke:#000D19;stroke-width:0.5;" width="324" x="280.5" y="206.58"/><ellipse cx="295.5" cy="226.4745" fill="#ADD1B2" rx="11" ry="11" style="stroke:#181818;stroke-width:1.0;"/><path d="M298.4688,232.1152 Q297.8906,232.412 297.25,232.5527 Q296.6094,232.7089 295.9063,232.7089 Q293.4063,232.7089 292.0781,231.0683 Q290.7656,229.412 290.7656,226.287 Q290.7656,223.162 292.0781,221.5058 Q293.4063,219.8495 295.9063,219.8495 Q296.6094,219.8495 297.25,220.0058 Q297.9063,220.162 298.4688,220.4589 L298.4688,223.1777 Q297.8438,222.5995 297.25,222.3339 Q296.6563,222.0527 296.0313,222.0527 Q294.6875,222.0527 294,223.1308 Q293.3125,224.1933 293.3125,226.287 Q293.3125,228.3808 294,229.4589 Q294.6875,230.5214 296.0313,230.5214 Q296.6563,230.5214 297.25,230.2558 Q297.8438,229.9745 298.4688,229.3964 L298.4688,232.1152 Z " fill="#000000"/><text fill="#D9B8FF" font-family="Helvetica" font-size="17" lengthAdjust="spacing" textLength="282" x="314.5" y="232.3598">microsoft_graph_service_principal</text></g><!--class microsoft_graph_user--><g id="elem_microsoft_graph_user"><rect codeLine="35" fill="#3D176E" height="39.7891" id="microsoft_graph_user" rx="2.5" ry="2.5" style="stroke:#000D19;stroke-width:0.5;" width="222" x="639.5" y="206.58"/><ellipse cx="654.5" cy="226.4745" fill="#ADD1B2" rx="11" ry="11" style="stroke:#181818;stroke-width:1.0;"/><path d="M657.4688,232.1152 Q656.8906,232.412 656.25,232.5527 Q655.6094,232.7089 654.9063,232.7089 Q652.4063,232.7089 651.0781,231.0683 Q649.7656,229.412 649.7656,226.287 Q649.7656,223.162 651.0781,221.5058 Q652.4063,219.8495 654.9063,219.8495 Q655.6094,219.8495 656.25,220.0058 Q656.9063,220.162 657.4688,220.4589 L657.4688,223.1777 Q656.8438,222.5995 656.25,222.3339 Q655.6563,222.0527 655.0313,222.0527 Q653.6875,222.0527 653,223.1308 Q652.3125,224.1933 652.3125,226.287 Q652.3125,228.3808 653,229.4589 Q653.6875,230.5214 655.0313,230.5214 Q655.6563,230.5214 656.25,230.2558 Q656.8438,229.9745 657.4688,229.3964 L657.4688,232.1152 Z " fill="#000000"/><text fill="#D9B8FF" font-family="Helvetica" font-size="17" lengthAdjust="spacing" textLength="180" x="673.5" y="232.3598">microsoft_graph_user</text></g><!--link azure_authorization_role_assignment to microsoft_graph_device--><g id="link_azure_authorization_role_assignment_microsoft_graph_device"><path codeLine="38" d="M417.17,47.25 C373.02,60.56 316.62,80.58 270.5,106.79 C220.93,134.97 175.7337,176.2886 149.6537,201.9886 " fill="none" id="azure_authorization_role_assignment-to-microsoft_graph_device" style="stroke:#1A83AF;stroke-width:2.0;"/><polygon fill="#1A83AF" points="145.38,206.2,154.5981,202.732,148.9414,202.6905,148.9829,197.0338,145.38,206.2" style="stroke:#1A83AF;stroke-width:2.0;"/></g><!--link azure_authorization_role_assignment to microsoft_graph_group--><g id="link_azure_authorization_role_assignment_microsoft_graph_group"><path codeLine="39" d="M473.71,47.22 C458.81,64.36 441.0849,84.7405 426.1949,101.8805 " fill="none" id="azure_authorization_role_assignment-to-microsoft_graph_group" style="stroke:#1A83AF;stroke-width:2.0;"/><polygon fill="#1A83AF" points="422.26,106.41,431.182,102.239,425.5391,102.6354,425.1427,96.9925,422.26,106.41" style="stroke:#1A83AF;stroke-width:2.0;"/></g><!--link azure_authorization_role_assignment to microsoft_graph_service_principal--><g id="link_azure_authorization_role_assignment_microsoft_graph_service_principal"><path codeLine="40" d="M508.84,47.06 C529.15,70.73 557.01,112.1 540.5,146.58 C528.05,172.59 507.4974,189.6175 485.5574,203.0475 " fill="none" id="azure_authorization_role_assignment-to-microsoft_graph_service_principal" style="stroke:#1A83AF;stroke-width:2.0;"/><polygon fill="#1A83AF" points="480.44,206.18,490.2044,204.8929,484.7045,203.5696,486.0278,198.0697,480.44,206.18" style="stroke:#1A83AF;stroke-width:2.0;"/></g><!--link azure_authorization_role_assignment to microsoft_graph_user--><g id="link_azure_authorization_role_assignment_microsoft_graph_user"><path codeLine="41" d="M515.9,47.2 C565.61,84.97 670.4225,164.6301 720.2125,202.4601 " fill="none" id="azure_authorization_role_assignment-to-microsoft_graph_user" style="stroke:#1A83AF;stroke-width:2.0;"/><polygon fill="#1A83AF" points="724.99,206.09,720.2437,197.4602,721.0088,203.0651,715.4039,203.8302,724.99,206.09" style="stroke:#1A83AF;stroke-width:2.0;"/></g><!--link microsoft_graph_group to microsoft_graph_device--><g id="link_microsoft_graph_group_microsoft_graph_device"><path codeLine="42" d="M350.38,147.01 C301.47,164.15 236.0419,187.0742 187.1719,204.2142 " fill="none" id="microsoft_graph_group-to-microsoft_graph_device" style="stroke:#1A83AF;stroke-width:2.0;"/><polygon fill="#1A83AF" points="181.51,206.2,191.3266,206.9959,186.2282,204.5452,188.679,199.4468,181.51,206.2" style="stroke:#1A83AF;stroke-width:2.0;"/></g><!--link microsoft_graph_group to microsoft_graph_service_principal--><g id="link_microsoft_graph_group_microsoft_graph_service_principal"><path codeLine="43" d="M412.81,147.01 C419.3,164.15 426.5953,183.4488 433.0853,200.5888 " fill="none" id="microsoft_graph_group-to-microsoft_graph_service_principal" style="stroke:#1A83AF;stroke-width:2.0;"/><polygon fill="#1A83AF" points="435.21,206.2,435.7638,196.3667,433.4394,201.524,428.2822,199.1996,435.21,206.2" style="stroke:#1A83AF;stroke-width:2.0;"/></g><!--link microsoft_graph_group to microsoft_graph_user--><g id="link_microsoft_graph_group_microsoft_graph_user"><path codeLine="44" d="M473.66,147.01 C534.05,164.12 615.9774,187.3439 676.4174,204.4739 " fill="none" id="microsoft_graph_group-to-microsoft_graph_user" style="stroke:#1A83AF;stroke-width:2.0;"/><polygon fill="#1A83AF" points="682.19,206.11,674.6218,199.8075,677.3795,204.7466,672.4403,207.5043,682.19,206.11" style="stroke:#1A83AF;stroke-width:2.0;"/></g><!--SRC=[fP91Qy9048Nl-HKBdWNJqAgNGYf8Uv5IUoibZDdPP37P3RCRHKl_UnEr9Srg5BtE-_RDcvUaaYF3lB0RbcE-G3AUMKfL047EGYAzdkXC4-i90I8OjiMfLlOiC8CSsJDcAxGoXZRndifugT0OTjUGdY1U9gHBnVVsba2PIa9b6zGa0sD2QqakIekDC7oy60dH9jkclO3xmmTqC4qSwO0C1WFkZzl8sLMTT_yHSxb5vZTBcscBJandnOxgJ5aJZP3EeR_woOolmBbK2RjlpDxscKWX_PlFK-1wNTC2CjDSOomIQhifSE9SXUCH5yEZyCifs8lhwXXiIy88IfjgabkmKgk8T5QDZ969ogk_X7rvtlS1psLCscXXeuIWI2EEAnbZ5r7lBhe0WrHxH0L95Si2iYwuhEYzVadm_aVF3qT1EFtiFvw8VhlFxi3RRPmQRhUio_AEVuzBchdYfNl45IQxs3y0]--></g></svg>

<svg xmlns="http://www.w3.org/2000/svg" width="868" height="252" viewBox="0 0 868 252"><rect width="356" height="39.789" x="312.5" y="7" fill="#3D176E" rx="2.5" ry="2.5" style="stroke:#000d19;stroke-width:.5"/><circle cx="327.5" cy="26.895" r="11" fill="#ADD1B2" style="stroke:#181818;stroke-width:1"/><path d="M330.469 32.535q-.578.297-1.219.438-.64.156-1.344.156-2.5 0-3.828-1.64-1.312-1.657-1.312-4.782t1.312-4.781q1.328-1.656 3.828-1.656.703 0 1.344.156.656.156 1.219.453v2.719q-.625-.578-1.219-.844-.594-.281-1.219-.281-1.344 0-2.031 1.078-.687 1.062-.687 3.156t.687 3.172q.688 1.062 2.031 1.062.625 0 1.219-.265.594-.281 1.219-.86z"/><text x="346.5" y="32.78" fill="#D9B8FF" font-family="Helvetica" font-size="17" textLength="314">azure_authorization_role_assignment</text><rect width="239" height="39.789" x="7" y="206.58" fill="#3D176E" rx="2.5" ry="2.5" style="stroke:#000d19;stroke-width:.5"/><circle cx="22" cy="226.475" r="11" fill="#ADD1B2" style="stroke:#181818;stroke-width:1"/><path d="M24.969 232.115q-.578.297-1.219.438-.64.156-1.344.156-2.5 0-3.828-1.64-1.312-1.657-1.312-4.782t1.312-4.781q1.328-1.656 3.828-1.656.703 0 1.344.156.656.156 1.219.453v2.719q-.625-.578-1.219-.844-.594-.281-1.219-.281-1.343 0-2.031 1.078-.687 1.062-.687 3.156t.687 3.172q.688 1.062 2.031 1.062.625 0 1.219-.265.594-.281 1.219-.86z"/><text x="41" y="232.36" fill="#D9B8FF" font-family="Helvetica" font-size="17" textLength="197">microsoft_graph_device</text><rect width="234" height="39.789" x="288.5" y="106.79" fill="#3D176E" rx="2.5" ry="2.5" style="stroke:#000d19;stroke-width:.5"/><circle cx="303.5" cy="126.684" r="11" fill="#ADD1B2" style="stroke:#181818;stroke-width:1"/><path d="M306.469 132.325q-.578.297-1.219.438-.64.156-1.344.156-2.5 0-3.828-1.64-1.312-1.657-1.312-4.782t1.312-4.781q1.328-1.656 3.828-1.656.703 0 1.344.156.656.156 1.219.453v2.719q-.625-.579-1.219-.844-.594-.281-1.219-.281-1.344 0-2.031 1.078-.687 1.062-.687 3.156t.687 3.172q.688 1.062 2.031 1.062.625 0 1.219-.265.594-.281 1.219-.86z"/><text x="322.5" y="132.57" fill="#D9B8FF" font-family="Helvetica" font-size="17" textLength="192">microsoft_graph_group</text><rect width="324" height="39.789" x="280.5" y="206.58" fill="#3D176E" rx="2.5" ry="2.5" style="stroke:#000d19;stroke-width:.5"/><circle cx="295.5" cy="226.475" r="11" fill="#ADD1B2" style="stroke:#181818;stroke-width:1"/><path d="M298.469 232.115q-.578.297-1.219.438-.64.156-1.344.156-2.5 0-3.828-1.64-1.312-1.657-1.312-4.782t1.312-4.781q1.328-1.656 3.828-1.656.703 0 1.344.156.656.156 1.219.453v2.719q-.625-.578-1.219-.844-.594-.281-1.219-.281-1.344 0-2.031 1.078-.687 1.062-.687 3.156t.687 3.172q.688 1.062 2.031 1.062.625 0 1.219-.265.594-.281 1.219-.86z"/><text x="314.5" y="232.36" fill="#D9B8FF" font-family="Helvetica" font-size="17" textLength="282">microsoft_graph_service_principal</text><rect width="222" height="39.789" x="639.5" y="206.58" fill="#3D176E" rx="2.5" ry="2.5" style="stroke:#000d19;stroke-width:.5"/><circle cx="654.5" cy="226.475" r="11" fill="#ADD1B2" style="stroke:#181818;stroke-width:1"/><path d="M657.469 232.115q-.578.297-1.219.438-.64.156-1.344.156-2.5 0-3.828-1.64-1.312-1.657-1.312-4.782t1.312-4.781q1.328-1.656 3.828-1.656.703 0 1.344.156.656.156 1.219.453v2.719q-.625-.578-1.219-.844-.594-.281-1.219-.281-1.343 0-2.031 1.078-.687 1.062-.687 3.156t.687 3.172q.688 1.062 2.031 1.062.625 0 1.219-.265.594-.281 1.219-.86z"/><text x="673.5" y="232.36" fill="#D9B8FF" font-family="Helvetica" font-size="17" textLength="180">microsoft_graph_user</text><path fill="none" d="M417.17 47.25c-44.15 13.31-100.55 33.33-146.67 59.54-49.57 28.18-94.766 69.499-120.846 95.199" style="stroke:#1a83af;stroke-width:2"/><path fill="#1A83AF" d="m145.38 206.2 9.218-3.468-5.657-.042.042-5.656z" style="stroke:#1a83af;stroke-width:2"/><path fill="none" d="M473.71 47.22c-14.9 17.14-32.625 37.52-47.515 54.66" style="stroke:#1a83af;stroke-width:2"/><path fill="#1A83AF" d="m422.26 106.41 8.922-4.171-5.643.396-.396-5.642z" style="stroke:#1a83af;stroke-width:2"/><path fill="none" d="M508.84 47.06c20.31 23.67 48.17 65.04 31.66 99.52-12.45 26.01-33.003 43.037-54.943 56.468" style="stroke:#1a83af;stroke-width:2"/><path fill="#1A83AF" d="m480.44 206.18 9.764-1.287-5.5-1.323 1.324-5.5z" style="stroke:#1a83af;stroke-width:2"/><path fill="none" d="M515.9 47.2c49.71 37.77 154.523 117.43 204.313 155.26" style="stroke:#1a83af;stroke-width:2"/><path fill="#1A83AF" d="m724.99 206.09-4.746-8.63.765 5.605-5.605.765z" style="stroke:#1a83af;stroke-width:2"/><path fill="none" d="M350.38 147.01c-48.91 17.14-114.338 40.064-163.208 57.204" style="stroke:#1a83af;stroke-width:2"/><path fill="#1A83AF" d="m181.51 206.2 9.817.796-5.099-2.45 2.451-5.1z" style="stroke:#1a83af;stroke-width:2"/><path fill="none" d="M412.81 147.01c6.49 17.14 13.785 36.439 20.275 53.579" style="stroke:#1a83af;stroke-width:2"/><path fill="#1A83AF" d="m435.21 206.2.554-9.833-2.325 5.157-5.157-2.324z" style="stroke:#1a83af;stroke-width:2"/><path fill="none" d="M473.66 147.01c60.39 17.11 142.317 40.334 202.757 57.464" style="stroke:#1a83af;stroke-width:2"/><path fill="#1A83AF" d="m682.19 206.11-7.568-6.303 2.758 4.94-4.94 2.757z" style="stroke:#1a83af;stroke-width:2"/></svg>
